Hatter-kde-dark/actions/16/snap-node.svg

<?xml version="1.0" encoding="UTF-8"?>
<svg viewBox="0 0 16 16" xmlns="http://www.w3.org/2000/svg">
 <defs id="defs3051">
  <style id="current-color-scheme" type="text/css">.ColorScheme-Text {
        color:#dedede;
      }</style>
 </defs>
 <path class="ColorScheme-Text" d="m11 6v1h-3v1h3v1h3v-3h-3zm-9 1v1h1v-1h-1zm2 0v1h1v-1h-1zm2 0v1h1v-1h-1z" fill="currentColor"/>
</svg>

<svg xmlns="http://www.w3.org/2000/svg" viewBox="0 0 16 16">
  <defs id="defs3051">
    <style type="text/css" id="current-color-scheme">
      .ColorScheme-Text {
        color:#dedede;
      }
      </style>
  </defs>
  <path 
     style="fill:currentColor;fill-opacity:1;stroke:none" 
     d="M 11 6 L 11 7 L 8 7 L 8 8 L 11 8 L 11 9 L 14 9 L 14 6 L 11 6 z M 2 7 L 2 8 L 3 8 L 3 7 L 2 7 z M 4 7 L 4 8 L 5 8 L 5 7 L 4 7 z M 6 7 L 6 8 L 7 8 L 7 7 L 6 7 z "
     class="ColorScheme-Text"/>
</svg>
